**kern	**silbe	**kern	**silbe
*ICvox	*	*ICvox	*
*G:	*	*G:	*
*M4/4	*	*M4/4	*
*clefG2	*	*clefG2	*
r;	.	r;	.
=1	=1	=1	=1
1r	.	1r	.
=2	=2	=2	=2
1r	.	1r	.
=3	=3	=3	=3
1r	.	1r	.
=4	=4	=4	=4
1r	.	1r	.
=5	=5	=5	=5
1r	.	1r	.
=6	=6	=6	=6
1r	.	1r	.
=7	=7	=7	=7
1r	.	1r	.
=8	=8	=8	=8
1r	.	1r	.
=9	=9	=9	=9
8B	Ci-	1r	.
4B	-ty	.	.
4.B	girls	.	.
4B	just	.	.
=10	=10	=10	=10
4B	seem	1r	.
8B	to	.	.
4.B	find	.	.
4B	out	.	.
=11	=11	=11	=11
16B	ear-	1r	.
16A	_	.	.
8G	_	.	.
2G	-ly	.	.
4r	.	.	.
=12	=12	=12	=12
1r	.	1r	.
=13	=13	=13	=13
4A	how	1r	.
8A	to	.	.
4A	o-	.	.
8A	-pen	.	.
4B	_	.	.
=14	=14	=14	=14
8A	doors	1r	.
4G	_	.	.
8G	with	.	.
8F#	just	.	.
8G	a	.	.
8A	_	.	.
8[A	smile	.	.
=15	=15	=15	=15
4A]	_	1r	.
4r	.	.	.
2r	.	.	.
=16	=16	=16	=16
2.r	.	1r	.
8r	.	.	.
8G	A	.	.
=17	=17	=17	=17
8B	rich	1r	.
4B	old	.	.
4B	man	.	.
4.r	.	.	.
=18	=18	=18	=18
8B	She	1r	.
4.B	won't	.	.
4B	have	.	.
8A	to	.	.
8A	wo-	.	.
=19	=19	=19	=19
8G	_	1r	.
4.G	-rry	.	.
2r	.	.	.
=20	=20	=20	=20
2.r	.	1r	.
8r	.	.	.
8E	She'll	.	.
=21	=21	=21	=21
8A	dress	1r	.
4.A	up	.	.
4A	all	.	.
8B	in	.	.
16B	lace	.	.
16[G	_	.	.
=22	=22	=22	=22
8G]	_	1r	.
8r	.	.	.
8r	.	.	.
8E	and	.	.
8E	go	.	.
4G	in	.	.
8A	style	.	.
=23	=23	=23	=23
2.G	_	1r	.
4r	.	.	.
=24	=24	=24	=24
1r	.	1r	.
=25	=25	=25	=25
8B	Late	1r	.
4B	at	.	.
4B	night	.	.
8r	.	.	.
8r	.	.	.
8G	a	.	.
=26	=26	=26	=26
8B	big	1r	.
4B	old	.	.
4B	house	.	.
4d	gets	.	.
16B	lone-	.	.
16A	_	.	.
=27	=27	=27	=27
8G	_	1r	.
4.G	-ly	.	.
2r	.	.	.
=28	=28	=28	=28
2.r	.	1r	.
8E	I	.	.
8G	guess	.	.
=29	=29	=29	=29
8A	ev-	1r	.
4A	-ery	.	.
2A	form	.	.
8B	of	.	.
=30	=30	=30	=30
8A	re-	1r	.
4.G	-fuge	.	.
8F#	has	.	.
4G	it's	.	.
8[A	price	.	.
=31	=31	=31	=31
8A]	_	1r	.
8B	_	.	.
4r	.	.	.
2r	.	.	.
=32	=32	=32	=32
2.r	.	1r	.
8G	And	.	.
8G	it	.	.
=33	=33	=33	=33
8B	breaks	1r	.
4B	her	.	.
4B	heart	.	.
8r	.	.	.
8r	.	.	.
8G	to	.	.
=34	=34	=34	=34
8B	think	1r	.
4B	her	.	.
4.d	love	.	.
8B	is	.	.
16B	on-	.	.
16A	_	.	.
=35	=35	=35	=35
8G	_	1r	.
4.G	-ly	.	.
2r	.	.	.
=36	=36	=36	=36
2.r	.	1r	.
8E	gi-	.	.
8G	-ven	.	.
=37	=37	=37	=37
8A	to	1r	.
4A	a	.	.
4.A	man	.	.
8B	with	.	.
8A	hands	.	.
=38	=38	=38	=38
4.G	_	1r	.
8G	as	.	.
4E	cold	.	.
8G	as	.	.
8[G	ice	.	.
=39	=39	=39	=39
4G]	_	1r	.
4r	.	.	.
2r	.	.	.
=40	=40	=40	=40
2r	.	2r	.
4r	.	4r	.
8G	So	8B	So
8G	she	8B	she
=41	=41	=41	=41
8B	tells	8d	tells
4.B	him	4.d	him
8B	she	8d	she
4.B	must	4.d	must
=42	=42	=42	=42
8B	go	8d	go
4.B	out	4.d	out
4B	for	4e	for
8A	the	8d	the
16B	eve-	16d	eve-
16A	_	16c	_
=43	=43	=43	=43
8G	_	8B	_
4.G	-nin'	4.B	-nin'
2r	.	2r	.
=44	=44	=44	=44
2r	.	2r	.
4.r	.	4.r	.
8G	to	8B	to
=45	=45	=45	=45
8A	com-	8c	com-
4.A	-fort	4.c	-fort
8A	an	8c	an
4A	old	4c	old
8G	friend	8[c	friend
=46	=46	=46	=46
4A	_	4c]	_
4G	who's	4r	.
8F#	feel-	8B	feel-
4G	-in'	4c	-in'
8[A	down	8[c	down
=47	=47	=47	=47
4A]	_	4c]	_
4r	.	4r	.
2r	.	2r	.
=48	=48	=48	=48
2.r	.	2.r	.
8r	.	8r	.
8G	But	8B	But
=49	=49	=49	=49
8B	he	8d	he
4B	knows	4d	knows
4B	where	4d	where
4B	she's	4d	she's
8[e	go-	8[g	go-
=50	=50	=50	=50
4e]	_	4g]	_
4d	-in'	4f#	-in'
4B	as	4d	as
4A	she's	4d	she's
=51	=51	=51	=51
16B	lea-	16d	lea-
16A	_	16c	_
8G	_	8B	_
4G	-vin'	4B	-vin'
2r	.	2r	.
=52	=52	=52	=52
2.r	.	2.r	.
8B	She	8e	She
8G	is	8d	is
=53	=53	=53	=53
8A	head-	8c	head-
4A	-ed	4c	-ed
2A	for	2c	for
8B	the	8d	the
=54	=54	=54	=54
8A	cheat-	8c	cheat-
4.G	-in'	4.B	-in'
4E	side	4G	side
8G	of	8B	of
8[G	town	8[B	town
=55	=55	=55	=55
4G]	_	4B]	_
4r	.	4r	.
2r	.	2r	.
=56	=56	=56	=56
2r	.	2r	.
8B	You	8d	You
4.d	can't	4.g	can't
=57	=57	=57	=57
1[d	hide	1[g	hide
=58	=58	=58	=58
4d]	_	4g]	_
4d	your	4g	your
16B	ly-	16d	ly-
16A	_	16c	_
8G	_	8B	_
8G	-in'	8B	-in'
8[G	eyes	8[B	eyes
=59	=59	=59	=59
2.G]	_	2.B]	_
4r	.	4r	.
=60	=60	=60	=60
2r	.	2r	.
8B	And	8d	And
4.d	your	4.f#	your
=61	=61	=61	=61
1[d	smile	1g	smile
=62	=62	=62	=62
4d]	_	4f#	_
8d	is	8f#	is
8d	a	8f#	a
16B	thin	16d	thin
16A	_	16c	_
8G	_	8B	_
8G	dis-	8B	dis-
8A	_	8c	_
=63	=63	=63	=63
1A	-guise	1c	-guise
=64	=64	=64	=64
4r	.	4r	.
8r	.	8r	.
8G	I	8d	I
4B	thought	4d	thought
4d	by	4g	by
=65	=65	=65	=65
1[d	now	1[g	now
=66	=66	=66	=66
4d]	_	4g]	_
4d	you'd	4g	you'd
16B	re-	16d	re-
16A	_	16c	_
8G	_	8B	_
8G	-a-	8B	-a-
8[G	-lize	8[c	-lize
=67	=67	=67	=67
1G]	_	1c]	_
=68	=68	=68	=68
2A	_	2c#	_
4.r	.	4.r	.
8G	there	8c	there
=69	=69	=69	=69
8A	ain't	8c	ain't
4A	no	4c	no
4.A	way	4.c	way
8B	to	8d	to
8A	hide	8c	hide
=70	=70	=70	=70
4G	_	4c	_
4G	your	4c	your
4E	ly-	4c	ly-
8G	-in'	8c	-in'
8[G	eyes	8c	eyes
=71	=71	=71	=71
1G]	_	1B	_
=72	=72	=72	=72
1r	.	1r	.
=73	=73	=73	=73
1r	.	1r	.
=74	=74	=74	=74
1r	.	1r	.
=75	=75	=75	=75
1r	.	1r	.
=76	=76	=76	=76
1r	.	1r	.
=77	=77	=77	=77
1r	.	1r	.
=78	=78	=78	=78
2.r	.	1r	.
8A	On	.	.
8G	the	.	.
=79	=79	=79	=79
8B	o-	1r	.
4.B	-ther	.	.
4B	side	.	.
8A	of	.	.
8[B	town	.	.
=80	=80	=80	=80
4B]	_	1r	.
8A	a	.	.
4.B	boy	.	.
8B	is	.	.
8A	wai-	.	.
=81	=81	=81	=81
8G	_	1r	.
4.G	-ting	.	.
2r	.	.	.
=82	=82	=82	=82
2r	.	1r	.
4.r	.	.	.
8G	with	.	.
=83	=83	=83	=83
4A	fie-	1r	.
8A	-ry	.	.
4.A	eyes	.	.
8A	and	.	.
16B	dreams	.	.
16A	_	.	.
=84	=84	=84	=84
4.G	_	1r	.
4e	no	.	.
4d	one	.	.
8B	could	.	.
=85	=85	=85	=85
8d	steal	1r	.
8B	_	.	.
8B	_	.	.
4.A	_	.	.
4r	.	.	.
=86	=86	=86	=86
2.r	.	1r	.
8r	.	.	.
8G	She	.	.
=87	=87	=87	=87
4.B	drives	1r	.
4.B	on	.	.
8B	through	.	.
8A	the	.	.
=88	=88	=88	=88
4B	night	1r	.
8r	.	.	.
4B	an-	.	.
8B	-ti-	.	.
8A	-ci-	.	.
16B	-pat-	.	.
16A	_	.	.
=89	=89	=89	=89
4G	_	1r	.
2G	-ing	.	.
4r	.	.	.
=90	=90	=90	=90
2.r	.	1r	.
8E	'cause	.	.
8G	he	.	.
=91	=91	=91	=91
8A	makes	1r	.
4A	her	.	.
8A	feel	.	.
16B	_	.	.
16A	_	.	.
4G	_	.	.
8G	the	.	.
=92	=92	=92	=92
8A	way	1r	.
8G	_	.	.
8r	.	.	.
8G	she	.	.
4E	used	.	.
8G	to	.	.
8[A	feel	.	.
=93	=93	=93	=93
8A]	_	1r	.
4.G	_	.	.
2r	.	.	.
=94	=94	=94	=94
2r	.	1r	.
4.r	.	.	.
8G	She	.	.
=95	=95	=95	=95
8B	rush-	1r	.
2B	-es	.	.
8B	to	.	.
8A	his	.	.
8[B	arms	.	.
=96	=96	=96	=96
4.B]	_	1r	.
4B	They	.	.
4d	fall	.	.
8B	to-	.	.
=97	=97	=97	=97
16B	-ge-	1r	.
16A	_	.	.
8G	_	.	.
4G	-ther	.	.
2r	.	.	.
=98	=98	=98	=98
2r	.	1r	.
4.r	.	.	.
8G	She	.	.
=99	=99	=99	=99
8A	whis-	1r	.
2A	-pers	.	.
8A	that	.	.
8A	it's	.	.
8[B	on-	.	.
=100	=100	=100	=100
8B]	_	1r	.
4.B	-ly	.	.
8r	.	.	.
4B	for	.	.
8B	a	.	.
=101	=101	=101	=101
8B	while	1r	.
4.A	_	.	.
2r	.	.	.
=102	=102	=102	=102
2.r	.	2.r	.
8r	.	8r	.
8G	She	8B	She
=103	=103	=103	=103
4B	swears	4d	swears
8B	that	8d	that
4.B	soon	4.d	soon
8B	she'll	8d	she'll
8A	be	8c	be
=104	=104	=104	=104
8B	com-	8d	com-
4B	-ing	4d	-ing
4.d	back	4.g	back
8B	for-	8d	for-
16B	-e-	16d	-e-
16A	_	16c	_
=105	=105	=105	=105
4G	_	4B	_
4G	-ver	4B	-ver
2r	.	2r	.
=106	=106	=106	=106
2.r	.	2.r	.
8r	.	8r	.
8G	She	8B	She
=107	=107	=107	=107
4A	pulls	4c	pulls
8A	a-	8c	a-
8A	-way	8c	-way
4B	_	4d	_
8r	.	8r	.
8G	and	8B	and
=108	=108	=108	=108
4A	leaves	4c	leaves
4G	him	4B	him
8E	with	8G	with
8G	a	8B	a
4A	smile	4c	smile
=109	=109	=109	=109
4G	_	4B	_
4r	.	4r	.
2r	.	2r	.
=110	=110	=110	=110
2r	.	2r	.
8B	You	8d	You
4.d	can't	4.g	can't
=111	=111	=111	=111
1[d	hide	1[g	hide
=112	=112	=112	=112
4d]	_	4g]	_
4d	your	4g	your
16B	ly-	16d	ly-
16A	_	16c	_
8G	_	8B	_
8G	-in'	8B	-in'
8[G	eyes	8[B	eyes
=113	=113	=113	=113
2.G]	_	2.B]	_
4r	.	4r	.
=114	=114	=114	=114
2r	.	2r	.
8B	And	8d	And
4.d	your	4.f#	your
=115	=115	=115	=115
2[e	smile	2[g	smile
8e]	_	8g]	_
8f#	_	8a	_
8e	_	8g	_
8[d	_	8[f#	_
=116	=116	=116	=116
4d]	_	4f#]	_
8d	is	8f#	is
8d	a	8f#	a
16B	thin	16d	thin
16A	_	16c	_
8G	_	8B	_
8G	dis-	8B	dis-
8A	_	8c	_
=117	=117	=117	=117
1A	-guise	1c	-guise
=118	=118	=118	=118
2r	.	2r	.
4B	thought	4d	thought
4d	by	4g	by
=119	=119	=119	=119
1[d	now	1[g	now
=120	=120	=120	=120
4d]	_	4g]	_
4d	you'd	4g	you'd
16B	re-	16d	re-
16A	_	16c	_
8G	_	8B	_
8G	-a-	8B	-a-
8[G	-lize	8[c	-lize
=121	=121	=121	=121
1G]	_	1c]	_
=122	=122	=122	=122
2A	_	2c#	_
4.r	.	4.r	.
8G	there	8c	there
=123	=123	=123	=123
8A	ain't	8c	ain't
4A	no	4c	no
4.A	way	4.c	way
8B	to	8d	to
8A	hide	8c	hide
=124	=124	=124	=124
4G	_	4c	_
4G	your	4c	your
4E	ly-	4c	ly-
8G	-in'	8c	-in'
8[G	eyes	8c	eyes
=125	=125	=125	=125
1G]	_	1B	_
=126	=126	=126	=126
1r	.	1r	.
=127	=127	=127	=127
1r	.	1r	.
=128	=128	=128	=128
1r	.	1r	.
=129	=129	=129	=129
1r	.	1r	.
=130	=130	=130	=130
1r	.	1r	.
=131	=131	=131	=131
1r	.	1r	.
=132	=132	=132	=132
1r	.	1r	.
=133	=133	=133	=133
8B	She	1r	.
4B	gets	.	.
8B	up	.	.
4.r	.	.	.
8G	and	.	.
=134	=134	=134	=134
4B	pours	1r	.
8A	her-	.	.
4.B	-self	.	.
8A	a	.	.
8A	strong	.	.
=135	=135	=135	=135
8G	_	1r	.
4.[G	one	.	.
4G]	_	.	.
4r	.	.	.
=136	=136	=136	=136
2r	.	1r	.
4.r	.	.	.
8G	and	.	.
=137	=137	=137	=137
4A	stares	1r	.
4A	out	.	.
8A	at	.	.
8A	the	.	.
4[A	stars	.	.
=138	=138	=138	=138
4.A]	_	1r	.
8G	up	.	.
8F#	in	.	.
4G	the	.	.
8[A	sky	.	.
=139	=139	=139	=139
2A]	_	1r	.
2r	.	.	.
=140	=140	=140	=140
2.r	.	1r	.
8r	.	.	.
8G	A-	.	.
=141	=141	=141	=141
8B	-no-	1r	.
4B	-ther	.	.
4B	night	.	.
8r	.	.	.
8r	.	.	.
8B	It's	.	.
=142	=142	=142	=142
4e	go-	1r	.
8d	-nna	.	.
4.d	be	.	.
8B	a	.	.
16B	long	.	.
16A	_	.	.
=143	=143	=143	=143
4G	_	1r	.
2G	one	.	.
4r	.	.	.
=144	=144	=144	=144
2.r	.	1r	.
8r	.	.	.
8G	She	.	.
=145	=145	=145	=145
4A	draws	1r	.
8A	the	.	.
4.A	shade	.	.
8B	and	.	.
8A	hangs	.	.
=146	=146	=146	=146
4G	_	1r	.
4G	her	.	.
4E	head	.	.
8G	to	.	.
8[G	cry	.	.
=147	=147	=147	=147
4G]	_	1r	.
4r	.	.	.
2r	.	.	.
=148	=148	=148	=148
2r	.	1r	.
4r	.	.	.
8r	.	.	.
8G	She	.	.
=149	=149	=149	=149
8B	won-	1r	.
8[B	-ders	.	.
2B]	_	.	.
8B	how	.	.
8A	it	.	.
=150	=150	=150	=150
8B	ev-	1r	.
2B	-er	.	.
4B	got	.	.
8B	this	.	.
=151	=151	=151	=151
16B	cra-	1r	.
16A	_	.	.
4G	_	.	.
4.G	-zy	.	.
4r	.	.	.
=152	=152	=152	=152
2r	.	1r	.
4r	.	.	.
8r	.	.	.
8G	She	.	.
=153	=153	=153	=153
4A	thinks	1r	.
8A	a-	.	.
4.A	-bout	.	.
8B	a	.	.
8A	boy	.	.
=154	=154	=154	=154
8G	_	1r	.
8r	.	.	.
8r	.	.	.
8G	she	.	.
8F#	knew	.	.
8G	in	.	.
8A	_	.	.
8[A	school	.	.
=155	=155	=155	=155
4.A]	_	1r	.
16F#	_	.	.
16E	_	.	.
4D	_	.	.
4r	.	.	.
=156	=156	=156	=156
2.r	.	1r	.
8r	.	.	.
8G	Did	.	.
=157	=157	=157	=157
8B	she	1r	.
4B	get	.	.
4.B	tired	.	.
8r	.	.	.
8G	or	.	.
=158	=158	=158	=158
8B	did	1r	.
4.B	she	.	.
8B	just	.	.
4B	get	.	.
16B	la-	.	.
16A	_	.	.
=159	=159	=159	=159
4G	_	1r	.
4G	-zy?	.	.
2r	.	.	.
=160	=160	=160	=160
2.r	.	1r	.
8r	.	.	.
8G	She's	.	.
=161	=161	=161	=161
8A	so	1r	.
4A	far	.	.
4.A	gone	.	.
8B	she	.	.
8A	feels	.	.
=162	=162	=162	=162
4G	_	1r	.
4G	just	.	.
4E	like	.	.
8G	a	.	.
8G	fool	.	.
=163	=163	=163	=163
8A	_	1r	.
4.G	_	.	.
2r	.	.	.
=164	=164	=164	=164
1r	.	1r	.
=165	=165	=165	=165
8B	My	8d	My
4A	oh	4c	oh
4B	my	4d	my
8r	.	8r	.
8r	.	8r	.
8G	You	8B	You
=166	=166	=166	=166
8B	sure	8d	sure
4.B	know	4.d	know
8B	how	8d	how
8A	to	8c	to
8G	a-	8B	a-
16B	-range	16d	-range
16A	_	16c	_
=167	=167	=167	=167
4G	_	4B	_
2G	things	2B	things
4r	.	4r	.
=168	=168	=168	=168
2r	.	2r	.
4.r	.	4.r	.
8G	You	8B	You
=169	=169	=169	=169
8A	set	8c	set
4.A	it	4.c	it
8A	up	8c	up
4A	so	4c	so
8A	well	8c	well
=170	=170	=170	=170
8G	_	8B	_
8r	.	8r	.
8r	.	8r	.
4G	so	4B	so
4F#	care-	4A	care-
8G	-full-	8B	-full-
=171	=171	=171	=171
2.A	-y	2.c	-y
4r	.	4r	.
=172	=172	=172	=172
2.r	.	2.r	.
8A	Ain't	8d	Ain't
8G	it	8B	it
=173	=173	=173	=173
8B	fun-	8d	fun-
4.B	-ny	4.d	-ny
4B	how	4d	how
8B	your	8d	your
8[B	new	8[d	new
=174	=174	=174	=174
8B]	_	8d]	_
4B	life	4d	life
8r	.	8r	.
8r	.	8r	.
8B	did-	8e	did-
8A	-n't	8d	-n't
16B	change	16e	change
16A	_	16d	_
=175	=175	=175	=175
4G	_	4B	_
2G	things	2B	things
4r	.	4r	.
=176	=176	=176	=176
2r	.	2r	.
4.r	.	4.r	.
8G	You're	8B	You're
=177	=177	=177	=177
4A	still	4c	still
8A	the	8c	the
4A	same	4c	same
8A	old	8c	old
4B	_	4d	_
=178	=178	=178	=178
8A	girl	8c	girl
8G	_	8B	_
4G	you	4B	you
4E	used	4G	used
8G	to	8B	to
8[G	be	8[B	be
=179	=179	=179	=179
4G]	_	4B]	_
4r	.	4r	.
2r	.	2r	.
=180	=180	=180	=180
2r	.	2r	.
8B	You	8d	You
4.d	can't	4.g	can't
=181	=181	=181	=181
1[d	hide	1[g	hide
=182	=182	=182	=182
4d]	_	4g]	_
4d	your	4g	your
16B	ly-	16d	ly-
16A	_	16c	_
8G	_	8B	_
8G	-in'	8B	-in'
8[G	eyes	8[B	eyes
=183	=183	=183	=183
2.G]	_	2.B]	_
4r	.	4r	.
=184	=184	=184	=184
2r	.	2r	.
8B	And	8d	And
4.d	your	4.f#	your
=185	=185	=185	=185
1e	smile	8g	smile
.	.	8a	_
.	.	2.g	_
=186	=186	=186	=186
4d	_	4f#	_
8d	is	8f#	is
8d	a	8f#	a
16B	thin	16d	thin
16A	_	16c	_
8G	_	8B	_
8G	dis-	8B	dis-
8A	_	8c	_
=187	=187	=187	=187
1A	-guise	1c	-guise
=188	=188	=188	=188
2r	.	2r	.
4B	thought	4d	thought
4d	by	4g	by
=189	=189	=189	=189
1[d	now	1[g	now
=190	=190	=190	=190
4d]	_	4g]	_
4d	you'd	4g	you'd
16B	re-	16d	re-
16A	_	16c	_
8G	_	8B	_
8G	-a-	8B	-a-
8[G	-lize	8[c	-lize
=191	=191	=191	=191
1G]	_	1c]	_
=192	=192	=192	=192
2A	_	2c#	_
4.r	.	4.r	.
8G	there	8c	there
=193	=193	=193	=193
8A	ain't	8c	ain't
4A	no	4c	no
4.A	way	4.c	way
8B	to	8d	to
8A	hide	8c	hide
=194	=194	=194	=194
4G	_	4B	_
4G	your	4B	your
4E	ly-	4B	ly-
8G	-in'	8B	-in'
8[G	eyes	8[B	eyes
=195	=195	=195	=195
1G]	_	1B]	_
=196	=196	=196	=196
2r	.	2r	.
4.r	.	4.r	.
8G	there	8c	there
=197	=197	=197	=197
8A	ain't	8c	ain't
4A	no	4c	no
4.A	way	4.c	way
8B	to	8d	to
8A	hide	8c	hide
=198	=198	=198	=198
4G	_	4B	_
4G	your	4B	your
4E	ly-	4B	ly-
8G	-in'	8B	-in'
8[G	eyes	8[B	eyes
=199	=199	=199	=199
2G]	_	2B]	_
2r	.	2r	.
=200	=200	=200	=200
1r	.	1r	.
=201	=201	=201	=201
8A	Ho-	8c	Ho-
4.A	-ney	4.c	-ney
8A	you	8c	you
8A	can't	8c	can't
4B	_	4d	_
=202	=202	=202	=202
4A	hide	4c	hide
4G	your	4B	your
4E	ly-	4B	ly-
8G	-in'	8B	-in'
8[G	eyes	8[B	eyes
=203	=203	=203	=203
2G]	_	2B]	_
2r	.	2r	.
=204	=204	=204	=204
1r	.	1r	.
=205	=205	=205	=205
1r	.	1r	.
=206	=206	=206	=206
1r	.	1r	.
=207	=207	=207	=207
1r	.	1r	.
=208	=208	=208	=208
1r	.	1r	.
r;	.	r;	.
r;	.	r;	.
*-	*-	*-	*-
!!!ENC: Nathaniel Condit-Schultz